src/lib/packages/icons/src/assets/line/volume-plus.svg

<svg width="24" height="24" viewBox="0 0 24 24" fill="none" xmlns="http://www.w3.org/2000/svg">
<path d="M12.348 2.47811C11.483 2.07711 10.494 2.20999 9.76697 2.82699L6.07605 5.95419C5.85005 6.14519 5.56297 6.25009 5.26697 6.25009H3.5C2.26 6.25009 1.25 7.25909 1.25 8.50009V15.4991C1.25 16.7401 2.26 17.7491 3.5 17.7491H5.26697C5.56297 17.7491 5.84995 17.854 6.07495 18.045L9.76599 21.1722C10.215 21.5532 10.765 21.7501 11.324 21.7501C11.67 21.7501 12.018 21.6751 12.348 21.5211C13.213 21.1201 13.75 20.279 13.75 19.325V4.67221C13.75 3.72021 13.213 2.87811 12.348 2.47811ZM12.25 19.327C12.25 19.695 12.051 20.0072 11.717 20.1622C11.382 20.3182 11.016 20.2661 10.736 20.0291L7.04504 16.9022C6.54904 16.4822 5.91794 16.2501 5.26794 16.2501H3.50098C3.08798 16.2501 2.75098 15.9141 2.75098 15.5001V8.50106C2.75098 8.08706 3.08798 7.75106 3.50098 7.75106H5.26794C5.91794 7.75106 6.54904 7.52021 7.04504 7.09921L10.7371 3.97201C11.0161 3.73401 11.383 3.6842 11.717 3.8392C12.051 3.9942 12.25 4.30616 12.25 4.67416V19.327ZM22.75 12.0001C22.75 12.4141 22.414 12.7501 22 12.7501H20.25V14.5001C20.25 14.9141 19.914 15.2501 19.5 15.2501C19.086 15.2501 18.75 14.9141 18.75 14.5001V12.7501H17C16.586 12.7501 16.25 12.4141 16.25 12.0001C16.25 11.5861 16.586 11.2501 17 11.2501H18.75V9.50009C18.75 9.08609 19.086 8.75009 19.5 8.75009C19.914 8.75009 20.25 9.08609 20.25 9.50009V11.2501H22C22.414 11.2501 22.75 11.5861 22.75 12.0001Z" fill="currentColor"/>
</svg>

<svg xmlns="http://www.w3.org/2000/svg" width="24" height="24" fill="none"><path fill="currentColor" d="M12.348 2.478a2.394 2.394 0 0 0-2.581.349l-3.69 3.127a1.254 1.254 0 0 1-.81.296H3.5A2.253 2.253 0 0 0 1.25 8.5v7c0 1.24 1.01 2.25 2.25 2.25h1.767c.296 0 .583.104.808.295l3.691 3.127a2.401 2.401 0 0 0 2.582.35 2.397 2.397 0 0 0 1.402-2.197V4.672c0-.952-.537-1.794-1.402-2.194Zm-.098 16.849a.9.9 0 0 1-.533.835.898.898 0 0 1-.981-.133l-3.691-3.127a2.754 2.754 0 0 0-1.777-.652H3.5a.75.75 0 0 1-.75-.75V8.501a.75.75 0 0 1 .75-.75h1.767c.65 0 1.281-.23 1.777-.652l3.692-3.127a.896.896 0 0 1 .98-.133.9.9 0 0 1 .533.835v14.653ZM22.75 12a.75.75 0 0 1-.75.75h-1.75v1.75a.75.75 0 0 1-1.5 0v-1.75H17a.75.75 0 0 1 0-1.5h1.75V9.5a.75.75 0 0 1 1.5 0v1.75H22a.75.75 0 0 1 .75.75Z"/></svg>
